src/components/00-materials/images-raw/Back Pain.svg

<svg width="96" height="96" viewBox="0 0 96 96" fill="none" xmlns="http://www.w3.org/2000/svg">
<path d="M28.73 23.93L35.09 31.17M51.2 30C50.1275 30.0134 49.0755 30.2954 48.14 30.82C44.14 32.97 40.14 35.19 36.14 37.31C35.1151 37.7769 34.2549 38.542 33.6715 39.5053C33.0882 40.4687 32.8088 41.5855 32.87 42.71V74.48C32.8614 75.2756 33.0359 76.0626 33.38 76.78C33.7453 77.4426 34.2852 77.9924 34.941 78.3697C35.5969 78.7469 36.3436 78.9373 37.1 78.92C37.4676 78.9178 37.8337 78.8707 38.19 78.78C39.0983 78.5239 39.8949 77.9713 40.453 77.2103C41.0111 76.4492 41.2987 75.5233 41.27 74.58V48.76C41.2678 48.4232 41.3412 48.0903 41.4849 47.7856C41.6285 47.481 41.8387 47.2126 42.1 47C44.71 45.37 47.38 43.85 50.3 42.16C50.3782 42.1124 50.4684 42.0881 50.56 42.09C50.7015 42.0926 50.8363 42.1507 50.9354 42.2517C51.0345 42.3527 51.09 42.4885 51.09 42.63V46.63C51.0773 47.1991 51.2415 47.7582 51.56 48.23C53.56 50.48 55.56 52.68 57.64 54.84C57.8745 55.0949 58.1588 55.2992 58.4752 55.4402C58.7916 55.5812 59.1336 55.656 59.48 55.66C60.1354 55.6493 60.7645 55.4005 61.25 54.96C61.5201 54.7604 61.744 54.5049 61.9066 54.211C62.0692 53.9171 62.1666 53.5917 62.1922 53.2568C62.2178 52.9219 62.171 52.5854 62.0551 52.2702C61.9391 51.955 61.7566 51.6684 61.52 51.43C60.18 49.76 58.72 48.18 57.45 46.43C56.9251 45.7258 56.6128 44.8861 56.55 44.01C56.44 41.23 56.55 38.45 56.55 35.67C56.48 32.26 54.11 30 51.2 30V30ZM61.83 19.86C61.0985 19.8521 60.3727 19.9884 59.6939 20.261C59.0151 20.5337 58.3966 20.9374 57.8738 21.449C57.351 21.9607 56.9341 22.5703 56.6469 23.243C56.3597 23.9158 56.2079 24.6386 56.2 25.37C56.1921 26.1015 56.3284 26.8273 56.601 27.5061C56.8736 28.1849 57.2773 28.8034 57.789 29.3262C58.3006 29.849 58.9102 30.2659 59.583 30.5531C60.2558 30.8403 60.9785 30.9921 61.71 31C63.168 30.9948 64.5649 30.4139 65.5968 29.3839C66.6287 28.3539 67.2121 26.958 67.22 25.5C67.2467 24.7796 67.1292 24.0611 66.8743 23.3868C66.6194 22.7124 66.2323 22.0958 65.7358 21.5732C65.2392 21.0505 64.6432 20.6324 63.9828 20.3434C63.3224 20.0543 62.6108 19.9002 61.89 19.89L61.83 19.86ZM32.98 17.84L38.22 26.83L32.98 17.84ZM40.39 17.14L43.44 25.97L40.39 17.14Z" stroke="#00008F" stroke-width="2" stroke-linecap="round" stroke-linejoin="round"/>
</svg>

<svg width="96" height="96" viewBox="0 0 96 96" fill="none" xmlns="http://www.w3.org/2000/svg"><path d="M28.73 23.93l6.36 7.24M51.2 30a6.42 6.42 0 00-3.06.82c-4 2.15-8 4.37-12 6.49a5.6 5.6 0 00-3.27 5.4v31.77a5.189 5.189 0 00.51 2.3 4.14 4.14 0 003.72 2.14c.368-.002.734-.05 1.09-.14a4.23 4.23 0 003.08-4.2V48.76A2.25 2.25 0 0142.1 47c2.61-1.63 5.28-3.15 8.2-4.84a.48.48 0 01.26-.07.54.54 0 01.53.54v4a2.75 2.75 0 00.47 1.6c2 2.25 4 4.45 6.08 6.61a2.54 2.54 0 001.84.82 2.7 2.7 0 001.77-.7 2.34 2.34 0 00.27-3.53c-1.34-1.67-2.8-3.25-4.07-5a4.6 4.6 0 01-.9-2.42c-.11-2.78 0-5.56 0-8.34-.07-3.41-2.44-5.67-5.35-5.67v0zm10.63-10.14A5.57 5.57 0 1061.71 31a5.53 5.53 0 005.51-5.5 5.41 5.41 0 00-5.33-5.61l-.06-.03zm-28.85-2.02l5.24 8.99-5.24-8.99zm7.41-.7l3.05 8.83-3.05-8.83z" stroke="#00008F" stroke-width="2" stroke-linecap="round" stroke-linejoin="round"/></svg>
